chrome/icons/caution-badge.svg

<svg height="16" viewBox="406 86 213 875" width="16" xmlns="http://www.w3.org/2000/svg" xmlns:xlink="http://www.w3.org/1999/xlink">
  <path d="M426.5,512L426.5,170.5C426.5,158.833 428.75,147.833 433.25,137.5C437.75,127.167 443.917,118.167 451.75,110.5C459.583,102.833 468.667,96.75 479,92.25C489.333,87.75 500.333,85.5 512,85.5C523.667,85.5 534.667,87.75 545,92.25C555.333,96.75 564.417,102.833 572.25,110.5C580.083,118.167 586.25,127.167 590.75,137.5C595.25,147.833 597.5,158.833 597.5,170.5L597.5,512C597.5,523.667 595.25,534.667 590.75,545C586.25,555.333 580.083,564.417 572.25,572.25C564.417,580.083 555.333,586.25 545,590.75C534.667,595.25 523.667,597.5 512,597.5C500.333,597.5 489.333,595.25 479,590.75C468.667,586.25 459.583,580.083 451.75,572.25C443.917,564.417 437.75,555.333 433.25,545C428.75,534.667 426.5,523.667 426.5,512ZM405.5,853.5C405.5,838.833 408.333,825 414,812C419.667,799 427.333,787.667 437,778C446.667,768.333 457.917,760.667 470.75,755C483.583,749.333 497.333,746.5 512,746.5C526.667,746.5 540.417,749.333 553.25,755C566.083,760.667 577.333,768.333 587,778C596.667,787.667 604.333,799 610,812C615.667,825 618.5,838.833 618.5,853.5C618.5,868.167 615.667,881.917 610,894.75C604.333,907.583 596.667,918.833 587,928.5C577.333,938.167 566,945.833 553,951.5C540,957.167 526.333,960 512,960C497.333,960 483.583,957.167 470.75,951.5C457.917,945.833 446.667,938.167 437,928.5C427.333,918.833 419.667,907.583 414,894.75C408.333,881.917 405.5,868.167 405.5,853.5Z" fill="context-fill" fill-opacity="context-fill-opacity">
  </path>
</svg>

<svg xmlns="http://www.w3.org/2000/svg" width="16" height="16" viewBox="406 86 213 875"><path fill="context-fill" fill-opacity="context-fill-opacity" d="M426.5 512V170.5q0-17.5 6.75-33t18.5-27T479 92.25t33-6.75 33 6.75 27.25 18.25 18.5 27 6.75 33V512q0 17.5-6.75 33t-18.5 27.25-27.25 18.5-33 6.75-33-6.75-27.25-18.5-18.5-27.25-6.75-33m-21 341.5q0-22 8.5-41.5t23-34 33.75-23 41.25-8.5 41.25 8.5T587 778t23 34 8.5 41.5-8.5 41.25-23 33.75-34 23-41 8.5q-22 0-41.25-8.5t-33.75-23-23-33.75-8.5-41.25"/></svg>
